dist/images/dest/icons/quiz-logo.svg

<svg width="83" height="30" viewBox="0 0 83 30" fill="none" xmlns="http://www.w3.org/2000/svg">
<g clip-path="url(#clip0_149_2787)">
<path d="M13.2752 16.4463H11.3242V25.3719H13.2752V16.4463Z" fill="#CFA672"/>
<path d="M25.9983 6.48743V4.62793H4.75V6.48743H11.3238V10.2064H13.2324V6.48743H15.6923V25.3717H16.5829H17.6432H25.9983V23.4709H17.6432V6.48743H25.9983Z" fill="#CFA672"/>
<path d="M12.2993 14.2149C12.8146 14.2149 13.2323 13.8079 13.2323 13.3058C13.2323 12.8037 12.8146 12.3967 12.2993 12.3967C11.784 12.3967 11.3662 12.8037 11.3662 13.3058C11.3662 13.8079 11.784 14.2149 12.2993 14.2149Z" fill="#CFA672"/>
<path d="M30.7486 29.9587H0V0H30.7486V29.9587ZM1.90853 28.0992H28.8401V1.8595H1.90853V28.0992Z" fill="#CFA672"/>
<path d="M38.2558 20.2893V14.5041H36.3896V13.3884H41.3518V14.5041H39.4433V20.2893H38.2558Z" fill="#CFA672"/>
<path d="M45.2959 20.3718C44.278 20.3718 43.4297 20.0413 42.7087 19.3388C41.9877 18.6776 41.6484 17.8099 41.6484 16.8181C41.6484 15.8264 41.9877 14.9999 42.7087 14.2975C43.4297 13.6363 44.278 13.2644 45.2959 13.2644C46.3137 13.2644 47.162 13.595 47.8406 14.2975C48.5616 14.9999 48.9009 15.8264 48.9009 16.8181C48.9009 17.8099 48.5616 18.6363 47.8406 19.3388C47.162 20.0413 46.2713 20.3718 45.2959 20.3718ZM45.2959 19.2975C45.9744 19.2975 46.5682 19.0495 47.0347 18.595C47.5013 18.1404 47.7133 17.5619 47.7133 16.8594C47.7133 16.157 47.5013 15.5785 47.0347 15.1239C46.5682 14.6694 45.9744 14.4214 45.2959 14.4214C44.6173 14.4214 44.0235 14.6694 43.557 15.1239C43.0904 15.5785 42.8784 16.157 42.8784 16.8594C42.8784 17.5619 43.0904 18.1404 43.557 18.595C44.0235 19.0495 44.5749 19.2975 45.2959 19.2975Z" fill="#CFA672"/>
<path d="M50.2158 20.2893V13.3884H52.3364C53.0574 13.3884 53.6512 13.595 54.1177 14.0083C54.5842 14.4215 54.7963 14.9587 54.7963 15.5785C54.7963 16.2397 54.5842 16.7355 54.1177 17.1488C53.6512 17.562 53.0574 17.7686 52.3364 17.7686H51.3609V20.2893H50.2158ZM51.3609 16.7355H52.294C52.7181 16.7355 53.015 16.6529 53.2695 16.4463C53.4815 16.2397 53.6088 15.9504 53.6088 15.6198C53.6088 15.2893 53.4815 15 53.2695 14.7934C53.0574 14.5868 52.7181 14.4628 52.294 14.4628H51.3609V16.7355Z" fill="#CFA672"/>
<path d="M55.9414 20.2893V13.3884H57.0865V19.1736H60.0554V20.2893H55.9414Z" fill="#CFA672"/>
<path d="M61.1582 20.2893V13.3884H65.357V14.5041H62.3033V16.2397H64.7632V17.3554H62.3033V19.2149H65.357V20.3306H61.1582V20.2893Z" fill="#CFA672"/>
<path d="M69.3863 20.3719L66.0781 13.3884H67.3505L69.3438 17.7686L71.3372 13.3884H72.6095L69.3863 20.3719Z" fill="#CFA672"/>
<path d="M73.2451 20.2893V13.3884H77.4439V14.5041H74.3902V16.2397H76.8501V17.3554H74.3902V19.2149H77.4439V20.3306H73.2451V20.2893Z" fill="#CFA672"/>
<path d="M78.8438 20.2893V13.3884H79.9889V19.1736H82.9577V20.2893H78.8438Z" fill="#CFA672"/>
<path d="M36.3896 29.9586V24.3801H38.0437C38.5951 24.3801 39.0616 24.5041 39.3585 24.7934C39.6978 25.0826 39.825 25.4545 39.825 25.9091C39.825 26.281 39.6978 26.6115 39.4857 26.9008C39.2737 27.19 38.8919 27.3553 38.4254 27.438L40.4612 30H39.7402L37.7468 27.438H36.9834V29.9586H36.3896ZM36.9834 26.9421H38.0013C38.383 26.9421 38.7223 26.8595 38.8919 26.6942C39.104 26.5289 39.1888 26.281 39.1888 25.9504C39.1888 25.6198 39.104 25.3719 38.8919 25.2066C38.6799 25.0413 38.383 24.9586 38.0013 24.9586H36.9834V26.9421Z" fill="#CFA672"/>
<path d="M41.3096 29.9586V24.3801H44.5753V24.9173H41.9033V26.7768H44.0663V27.3553H41.9033V29.3801H44.5753V29.9173H41.3096V29.9586Z" fill="#CFA672"/>
<path d="M45.1689 29.9587L47.9257 24.3389L50.6825 29.9587H50.0463L49.2829 28.3885H46.5685L45.8051 29.9587H45.1689ZM46.823 27.8513H49.0284L47.9257 25.5785L46.823 27.8513Z" fill="#CFA672"/>
<path d="M51.3613 29.9586V24.3801H51.9551V29.3801H54.5846V29.9586H51.3613Z" fill="#CFA672"/>
<path d="M58.1465 29.9586V24.3801H61.4122V24.9173H58.7402V26.7768H60.9033V27.3553H58.7402V29.3801H61.4122V29.9173H58.1465V29.9586Z" fill="#CFA672"/>
<path d="M64.0425 30C63.6608 30 63.3215 29.9173 62.9822 29.752C62.6429 29.5867 62.3884 29.3801 62.2188 29.1322L62.6853 28.7603C62.8549 28.9669 63.0246 29.1322 63.279 29.2562C63.5335 29.3801 63.788 29.4628 64.0425 29.4628C64.4242 29.4628 64.7211 29.3801 64.9331 29.2148C65.1452 29.0496 65.2724 28.8429 65.2724 28.5537C65.2724 28.3058 65.1876 28.0991 65.0179 27.8925C64.8483 27.7272 64.5938 27.562 64.2545 27.3967L63.7032 27.1487C63.279 26.9834 62.9822 26.7355 62.7701 26.4876C62.558 26.2396 62.4732 25.9504 62.4732 25.5785C62.4732 25.1653 62.6429 24.8347 62.9398 24.5867C63.2366 24.3388 63.6608 24.2148 64.0849 24.2148C64.7211 24.2148 65.23 24.4628 65.6117 24.9173L65.1876 25.3305C64.8907 24.9586 64.509 24.7934 64.0425 24.7934C63.7456 24.7934 63.5335 24.876 63.3215 25C63.1094 25.1239 63.0246 25.3305 63.0246 25.5785C63.0246 25.7851 63.1094 25.9917 63.2366 26.157C63.3639 26.3223 63.6183 26.4876 63.9152 26.6115L64.4666 26.8595C64.8907 27.0661 65.23 27.2727 65.4421 27.5206C65.6965 27.7686 65.7813 28.0578 65.7813 28.4297C65.7813 28.8843 65.6117 29.2562 65.3148 29.5041C65.0179 29.876 64.5938 30 64.0425 30Z" fill="#CFA672"/>
<path d="M67.8591 29.9586V24.9586H66.2051V24.3801H70.1494V24.9586H68.4953V29.9586H67.8591Z" fill="#CFA672"/>
<path d="M69.7256 29.9587L72.4824 24.3389L75.2391 29.9587H74.6029L73.8395 28.3885H71.1252L70.3618 29.9587H69.7256ZM71.3797 27.8513H73.5851L72.4824 25.5785L71.3797 27.8513Z" fill="#CFA672"/>
<path d="M76.4685 29.9586V24.9586H74.8145V24.3801H78.7588V24.9586H77.1047V29.9586H76.4685Z" fill="#CFA672"/>
<path d="M79.7344 29.9586V24.3801H83.0001V24.9173H80.3281V26.7768H82.4911V27.3553H80.3281V29.3801H83.0001V29.9173H79.7344V29.9586Z" fill="#CFA672"/>
</g>
<defs>
<clipPath id="clip0_149_2787">
<rect width="83" height="30" fill="white"/>
</clipPath>
</defs>
</svg>

<svg xmlns="http://www.w3.org/2000/svg" width="83" height="30" fill="none"><g fill="#CFA672" clip-path="url(#a)"><path d="M13.275 16.446h-1.95v8.926h1.95v-8.926Z"/><path d="M25.998 6.487v-1.86H4.75v1.86h6.574v3.72h1.908v-3.72h2.46v18.885h10.306V23.47h-8.355V6.487h8.355Z"/><path d="M12.3 14.215a.921.921 0 0 0 .932-.91.921.921 0 0 0-.933-.908.921.921 0 0 0-.933.909c0 .502.418.909.933.909Z"/><path d="M30.749 29.959H0V0h30.749v29.959Zm-28.84-1.86H28.84V1.86H1.91V28.1Zm36.347-7.809v-5.786H36.39v-1.116h4.962v1.116h-1.909v5.785h-1.187Zm7.04.082c-1.018 0-1.866-.33-2.587-1.033-.721-.661-1.06-1.53-1.06-2.52 0-.993.339-1.82 1.06-2.521.72-.662 1.569-1.034 2.587-1.034 1.018 0 1.866.331 2.545 1.034.72.702 1.06 1.528 1.06 2.52s-.34 1.818-1.06 2.52c-.679.703-1.57 1.034-2.545 1.034Zm0-1.075c.678 0 1.272-.248 1.739-.702.466-.455.678-1.033.678-1.736 0-.702-.212-1.28-.678-1.735a2.434 2.434 0 0 0-1.74-.703 2.43 2.43 0 0 0-1.738.703c-.467.454-.679 1.033-.679 1.735 0 .703.212 1.281.679 1.736a2.366 2.366 0 0 0 1.739.703Zm4.92.993v-6.902h2.12c.721 0 1.315.207 1.782.62.466.414.678.95.678 1.57 0 .662-.212 1.157-.678 1.57-.467.414-1.06.62-1.782.62h-.975v2.521h-1.145Zm1.145-3.555h.933c.424 0 .721-.082.976-.289.211-.206.339-.496.339-.826 0-.33-.128-.62-.34-.827-.212-.206-.55-.33-.975-.33h-.933v2.272Zm4.58 3.555v-6.902h1.145v5.786h2.97v1.115H55.94Zm5.217 0v-6.902h4.199v1.116h-3.054v1.736h2.46v1.115h-2.46v1.86h3.054v1.116h-4.199v-.042Zm8.228.082-3.308-6.984h1.272l1.994 4.38 1.993-4.38h1.272l-3.223 6.984Zm3.859-.082v-6.902h4.199v1.116H74.39v1.736h2.46v1.115h-2.46v1.86h3.054v1.116h-4.199v-.042Zm5.599 0v-6.902h1.145v5.786h2.969v1.115h-4.114ZM36.39 29.959V24.38h1.654c.551 0 1.018.124 1.315.413.339.29.466.662.466 1.116 0 .372-.127.703-.34.992-.211.289-.593.454-1.06.537L40.461 30h-.72l-1.994-2.562h-.764v2.52h-.593Zm.593-3.017h1.018c.382 0 .721-.082.89-.248.213-.165.298-.413.298-.744 0-.33-.085-.578-.297-.743-.212-.166-.509-.248-.89-.248h-1.019v1.983Zm4.327 3.017V24.38h3.265v.537h-2.672v1.86h2.163v.578h-2.163v2.025h2.672v.537H41.31v.042Zm3.859 0 2.757-5.62 2.756 5.62h-.636l-.763-1.57h-2.715l-.763 1.57h-.636Zm1.654-2.108h2.205l-1.102-2.273-1.103 2.273Zm4.538 2.108V24.38h.594v5h2.63v.579H51.36Zm6.786 0V24.38h3.265v.537H58.74v1.86h2.163v.578H58.74v2.025h2.672v.537h-3.265v.042Zm5.896.041c-.382 0-.722-.083-1.06-.248-.34-.165-.595-.372-.764-.62l.466-.372c.17.207.34.372.594.496.254.124.509.207.764.207.381 0 .678-.083.89-.248.212-.165.34-.372.34-.661 0-.248-.085-.455-.255-.662-.17-.165-.424-.33-.764-.495l-.55-.248a2.315 2.315 0 0 1-.934-.661c-.212-.248-.297-.538-.297-.91 0-.413.17-.743.467-.991.297-.248.72-.372 1.145-.372.636 0 1.145.248 1.527.702l-.424.413c-.297-.371-.679-.537-1.145-.537-.297 0-.51.083-.722.207-.212.124-.296.33-.296.578 0 .207.084.414.212.579.127.165.381.33.678.454l.552.248c.424.207.763.414.975.662.255.248.34.537.34.909 0 .454-.17.826-.467 1.074-.297.372-.721.496-1.272.496Zm3.817-.041v-5h-1.655v-.579h3.944v.579h-1.654v5h-.636Zm1.866 0 2.756-5.62 2.757 5.62h-.636l-.763-1.57h-2.715l-.763 1.57h-.636Zm1.654-2.108h2.205l-1.103-2.273-1.102 2.273Zm5.089 2.108v-5h-1.654v-.579h3.944v.579h-1.654v5h-.636Zm3.265 0V24.38H83v.537h-2.672v1.86h2.163v.578h-2.163v2.025H83v.537h-3.266v.042Z"/></g><defs><clipPath id="a"><path fill="#fff" d="M0 0h83v30H0z"/></clipPath></defs></svg>
